!!!OTL: Pioniere sind stets munter, greifen immer tapfer an
!!!ARE: Europa, Mitteleuropa, Deutschland,
!!!SCT: D0290
!!!YEM: Copyright 1995, estate of Helmut Schaffrath.
**kern
*ICvox
*Ivox
!! Mixed meters:  4/4; 2/4
*M4/4
*k[f#c#]
*D:
=1
{4.f#
8f#
8f#
8f#
8e
8f#
=2
4a
4g
2r}
=3
{4.e
8cc#
8cc#
8cc#
8b
8cc#
=4
2.dd
4r}
=5
{4.f#
8f#
8f#
8f#
8e
8f#
=6
4a
4g
2r}
=7
{4.e
8cc#
8cc#
8cc#
8b
8cc#
=8
2.dd
4r}
=9
{4.cc#
8cc#
8cc#
8cc#
8b
8cc#
=10
4dd
4a
2r}
=11
{4.cc#
8cc#
8cc#
8cc#
8b
8cc#
=12
4dd
4a
4r}
{8f#
8g
=13
4a
4dd
4cc#
4b
=14
*M2/4
2a}
=15
{4.b
8b
=16
8a
8a
8b
8cc#
=17
4dd}
{8f#
8f#
=18
*M4/4
4a
4dd
4cc#
4b
=19
*M2/4
2a}
=20
{4.b
8a
=21
8a
8a
8b
8cc#
=22
2dd}
==
!!!AGN: Soldaten - Lied
!! Inzipit = Variante zum Lied
!!!ONB: ESAC (Essen Associative Code) Database: DVA
!!!AMT: irregular
!!!AIN: vox
!!!EED: Helmut Schaffrath
!!!EEV: 1.0
*-
